cdn/fa/svgs/sharp-regular/down-to-bracket.svg

<svg xmlns="http://www.w3.org/2000/svg" viewBox="0 0 448 512"><!--! Font Awesome Pro 6.5.1 by @fontawesome - https://fontawesome.com License - https://fontawesome.com/license (Commercial License) Copyright 2023 Fonticons, Inc. --><path d="M256 128v48h48 28.1L224 284.1 115.9 176H144h48V128 48h64v80zm1.9 190.1L384 192V176 128H352 336 304V80 48 0H256 192 144V48 80v48H112 96 64v48 16L190.1 318.1 224 352l33.9-33.9zM48 344V320H0v24V488v24H24 424h24V488 344 320H400v24V464H48V344z"/></svg>

<svg xmlns="http://www.w3.org/2000/svg" viewBox="0 0 448 512"><!--! Font Awesome Pro 6.5.2 by @fontawesome - https://fontawesome.com License - https://fontawesome.com/license (Commercial License) Copyright 2024 Fonticons, Inc. --><path d="M256 128l0 48 48 0 28.1 0L224 284.1 115.9 176l28.1 0 48 0 0-48 0-80 64 0 0 80zm1.9 190.1L384 192l0-16 0-48-32 0-16 0-32 0 0-48 0-32 0-48L256 0 192 0 144 0l0 48 0 32 0 48-32 0-16 0-32 0 0 48 0 16L190.1 318.1 224 352l33.9-33.9zM48 344l0-24L0 320l0 24L0 488l0 24 24 0 400 0 24 0 0-24 0-144 0-24-48 0 0 24 0 120L48 464l0-120z"/></svg>
